X: 10853
T: Driftwood By The Sea
R: reel
M: 4/4
K: Dmajor
D2 FEDF EF|EEFA B2 AB|dcde dBAF|E2 FA B2 Bd|
DDFE DFEF|EEFA B2 AB|dcde dBAF|EGFE D2 d2:|
d2 dedB Ad|BAFE DEFA|d2 dedB Ad|Beef eABc|
d2 dedB Ad|BAFE DEFA|B2 F2 BcdB|AFEG FD D2:|

